src/assets/svg/QR.svg

<svg fill="none" height="21" viewBox="0 0 21 21" width="21" xmlns="http://www.w3.org/2000/svg"><path clip-rule="evenodd" d="m7.5 1.5h-6v6h6zm-6-1.5h-1.5v1.5 6 1.5h1.5 6 1.5v-1.5-6-1.5h-1.5zm3 3h-1.5v1.5 1.5h1.5 1.5v-1.5-1.5zm-3 16.5v-6h6v6zm-1.5-7.5h1.5 6 1.5v1.5 6 1.5h-1.5-6-1.5v-1.5-6zm4.5 3h-1.5v1.5 1.5h1.5 1.5v-1.5-1.5zm9-13.5h6v6h-6zm-1.5-1.5h1.5 6 1.5v1.5 6 1.5h-1.5-6-1.5v-1.5-6zm4.5 3h-1.5v1.5 1.5h1.5 1.5v-1.5-1.5zm0 9h-4.5v9h1.5v-4.5h1.5v1.5h6v-6h-1.5v1.5h-3zm1.5 7.5h-1.5v1.5h1.5zm1.5 0h1.5v1.5h-1.5z" fill="#000" fill-rule="evenodd"/></svg>

<svg width="21" height="21" viewBox="0 0 21 21" fill="none" xmlns="http://www.w3.org/2000/svg">
<path fill-rule="evenodd" clip-rule="evenodd" d="M7.5 1.5H1.5V7.5H7.5V1.5ZM1.5 0H0V1.5V7.5V9H1.5H7.5H9V7.5V1.5V0H7.5H1.5ZM4.5 3H3V4.5V6H4.5H6V4.5V3H4.5ZM1.5 19.5V13.5H7.5V19.5H1.5ZM0 12H1.5H7.5H9V13.5V19.5V21H7.5H1.5H0V19.5V13.5V12ZM4.5 15H3V16.5V18H4.5H6V16.5V15H4.5ZM13.5 1.5H19.5V7.5H13.5V1.5ZM12 0H13.5H19.5H21V1.5V7.5V9H19.5H13.5H12V7.5V1.5V0ZM16.5 3H15V4.5V6H16.5H18V4.5V3H16.5ZM16.5 12H12V21H13.5V16.5H15V18H21V12H19.5V13.5H16.5V12ZM18 19.5H16.5V21H18V19.5ZM19.5 19.5H21V21H19.5V19.5Z" fill="black"/>
</svg>
